outputs/icons/enterprise/enterprise_diagnostics_round.svg

<svg xmlns="http://www.w3.org/2000/svg" width="1200" height="1200" fill="none"><path fill="#000" d="M411.111 154.214a24.999 24.999 0 1 1 27.778 41.57 24.999 24.999 0 0 1-27.778-41.57M775 150a24.99 24.99 0 0 0-23.095 15.433 24.97 24.97 0 0 0-1.425 14.444 25 25 0 0 0 6.84 12.8 25 25 0 0 0 12.805 6.842c4.845.965 9.875.47 14.44-1.422a25 25 0 0 0 11.22-9.208A24.98 24.98 0 0 0 800 175c0-6.631-2.635-12.99-7.32-17.677A25 25 0 0 0 775 150M733.75 650h69.5a100.002 100.002 0 0 1 171.86-41.105A100 100 0 0 1 1000.075 675a100 100 0 0 1-24.965 66.105 100 100 0 0 1-62.435 33.1A100.002 100.002 0 0 1 803.25 700h-37L651.31 958.56 448 551.935 389.125 650H225a25 25 0 0 1-17.678-7.325A25 25 0 0 1 200 625a25 25 0 0 1 7.322-17.68A25.02 25.02 0 0 1 225 600h135.875L452 448.062l196.69 393.373z"/><path fill="#000" fill-rule="evenodd" d="M900 200h200a50 50 0 0 1 50 50v831.25a68.77 68.77 0 0 1-20.135 48.615A68.77 68.77 0 0 1 1081.25 1150h-962.5a68.76 68.76 0 0 1-48.614-20.135A68.76 68.76 0 0 1 50 1081.25V250a50.003 50.003 0 0 1 50-50h200V100a50 50 0 0 1 50-50h500a49.997 49.997 0 0 1 50 50zm-50-100H350v150h500zM100 1100h1000V250H900v50H300v-50H100z"/></svg>

<svg width="1200" height="1200" viewBox="0 0 1200 1200" fill="none" xmlns="http://www.w3.org/2000/svg"><path fill-rule="evenodd" d="M900 200H1100C1113.26 200 1125.98 205.268 1135.355 214.644C1144.73 224.022 1150 236.739 1150 250V1081.25C1150 1099.485 1142.755 1116.97 1129.865 1129.865C1116.97 1142.755 1099.485 1150 1081.25 1150H118.75C100.517 1150 83.029 1142.755 70.136 1129.865C57.244 1116.97 50 1099.485 50 1081.25V250C50 236.739 55.268 224.022 64.645 214.644C74.021 205.268 86.739 200 100 200H300V100C300 86.739 305.268 74.021 314.644 64.645C324.022 55.268 336.739 50 350 50H850C863.26 50 875.98 55.268 885.355 64.645C894.73 74.021 900 86.739 900 100V200ZM850 100H350V250H850V100ZM100 1100H1100V250H900V300H300V250H100V1100ZM411.111 154.214C415.222 151.466 420.055 150 425 150C431.63 150 437.99 152.634 442.678 157.323C447.366 162.01 450 168.369 450 175C450 179.945 448.534 184.778 445.787 188.889C443.039 193 439.135 196.205 434.567 198.097C429.999 199.989 424.972 200.484 420.123 199.519C415.273 198.555 410.818 196.174 407.322 192.677C403.826 189.181 401.445 184.727 400.481 179.877C399.515 175.028 400.011 170.001 401.903 165.433C403.795 160.865 406.999 156.96 411.111 154.214ZM775 150C770.055 150 765.22 151.466 761.11 154.214C757 156.96 753.795 160.865 751.905 165.433C750.01 170.001 749.515 175.028 750.48 179.877C751.445 184.727 753.825 189.181 757.32 192.677C760.82 196.174 765.275 198.555 770.125 199.519C774.97 200.484 780 199.989 784.565 198.097C789.135 196.205 793.04 193 795.785 188.889C798.535 184.778 800 179.945 800 175C800 168.369 797.365 162.01 792.68 157.323C787.99 152.634 781.63 150 775 150ZM733.75 650H803.25C809.335 626.435 823.805 605.895 843.95 592.235C864.095 578.575 888.53 572.73 912.675 575.795C936.82 578.865 959.02 590.63 975.11 608.895C991.2 627.155 1000.075 650.66 1000.075 675C1000.075 699.34 991.2 722.845 975.11 741.105C959.02 759.37 936.82 771.135 912.675 774.205C888.53 777.27 864.095 771.425 843.95 757.765C823.805 744.105 809.335 723.565 803.25 700H766.25L651.31 958.56L448 551.935L389.125 650H225C218.37 650 212.011 647.365 207.322 642.675C202.634 637.99 200 631.63 200 625C200 618.37 202.634 612.01 207.322 607.32C212.011 602.635 218.37 600 225 600H360.875L452 448.062L648.69 841.435L733.75 650Z" fill="#1D1E23"/></svg>
